html-css/module-11/build/images/icons/icons_svg/instagram.svg

<svg xmlns="http://www.w3.org/2000/svg" viewBox="0 0 26 26"><path d="M22.7 25.8H3.5a3.2 3.2 0 01-3.2-3.201V3.4A3.2 3.2 0 013.5.199h19.2A3.2 3.2 0 0125.9 3.4v19.199a3.2 3.2 0 01-3.2 3.201zM13.1 8.039a4.957 4.957 0 00-4.498 2.88h-.005l-.022.055a5.23 5.23 0 00-.128.321c-.019.053-.04.104-.057.156a4.386 4.386 0 00-.095.34c-.014.053-.03.106-.042.16a4.952 4.952 0 00-.061.368c-.007.05-.017.099-.023.15a4.96 4.96 0 109.862 0c-.006-.051-.016-.1-.023-.15a4.952 4.952 0 00-.061-.368c-.012-.054-.028-.107-.042-.16a4.386 4.386 0 00-.095-.34c-.017-.052-.038-.103-.057-.156a5.23 5.23 0 00-.128-.321l-.022-.055h-.005a4.957 4.957 0 00-4.498-2.88zm9.92-3.68a1.28 1.28 0 00-1.28-1.279h-2.56a1.28 1.28 0 00-1.28 1.279V6.92c0 .707.573 1.28 1.28 1.28h2.56a1.28 1.28 0 001.28-1.28V4.359zm0 6.56h-2.36a7.839 7.839 0 01-7.56 9.92 7.839 7.839 0 01-7.56-9.92H3.18v10.72a1.28 1.28 0 001.28 1.281h17.28a1.28 1.28 0 001.28-1.281v-10.72z"/></svg>

<svg 
 xmlns="http://www.w3.org/2000/svg"
 xmlns:xlink="http://www.w3.org/1999/xlink"
viewBox="0 0 26 26">
<path 
 d="M22.700,25.800 L3.500,25.800 C1.733,25.800 0.300,24.367 0.300,22.599 L0.300,3.400 C0.300,1.632 1.733,0.199 3.500,0.199 L22.700,0.199 C24.467,0.199 25.900,1.632 25.900,3.400 L25.900,22.599 C25.900,24.367 24.467,25.800 22.700,25.800 ZM13.100,8.039 C11.104,8.039 9.389,9.221 8.602,10.919 L8.597,10.919 C8.589,10.937 8.583,10.956 8.575,10.974 C8.528,11.079 8.487,11.187 8.447,11.295 C8.428,11.348 8.407,11.399 8.390,11.451 C8.353,11.563 8.323,11.676 8.295,11.791 C8.281,11.844 8.265,11.897 8.253,11.951 C8.227,12.072 8.209,12.195 8.192,12.319 C8.185,12.369 8.175,12.418 8.169,12.469 C8.151,12.643 8.140,12.820 8.140,13.000 C8.140,15.739 10.361,17.959 13.100,17.959 C15.839,17.959 18.060,15.739 18.060,13.000 C18.060,12.820 18.049,12.643 18.031,12.469 C18.025,12.418 18.015,12.369 18.008,12.319 C17.991,12.195 17.973,12.072 17.947,11.951 C17.935,11.897 17.919,11.844 17.905,11.791 C17.877,11.676 17.847,11.563 17.810,11.451 C17.793,11.399 17.772,11.348 17.753,11.295 C17.713,11.187 17.672,11.079 17.625,10.974 C17.617,10.956 17.611,10.937 17.603,10.919 L17.598,10.919 C16.811,9.221 15.096,8.039 13.100,8.039 ZM23.020,4.359 C23.020,3.652 22.447,3.080 21.740,3.080 L19.180,3.080 C18.473,3.080 17.900,3.652 17.900,4.359 L17.900,6.920 C17.900,7.627 18.473,8.200 19.180,8.200 L21.740,8.200 C22.447,8.200 23.020,7.627 23.020,6.920 L23.020,4.359 ZM23.020,10.919 L20.660,10.919 C20.842,11.582 20.940,12.280 20.940,13.000 C20.940,17.330 17.430,20.839 13.100,20.839 C8.770,20.839 5.260,17.330 5.260,13.000 C5.260,12.280 5.358,11.582 5.540,10.919 L3.180,10.919 L3.180,21.639 C3.180,22.347 3.753,22.920 4.460,22.920 L21.740,22.920 C22.447,22.920 23.020,22.347 23.020,21.639 L23.020,10.919 Z"/>
</svg>
